X:498
T:It Rains by Dogs and Cats
C:Dave Wiesler, 2015
N:For the dance "Inklings Romp" by Ren\'ee Camus
L:1/8
M:9/8
R:Slip-jig
S:Colin Hume's website,  colinhume.com  - chords can also be printed below the stave.
Q:3/8=116
K:Em
P:A
"Em"E2B BAB "Am"c2A | "D"D2A AGA "G"B2G | "C"C2G GFE "G"DGB | "D"ADE FGA "Am"c2B |
"Em"E2B BAB "Am"c2A | "D"D2A AGA "G"B2G | "C"C2g gfe "G"dcB | "D"ADE FAG "Em"E2z ]
P:B
|: "C"C2g gfe "G"dcB | "D"ADE FGA "/"c2B | "Am"A2c cde "G/B"dcB | "C"cde a2g "D"fed |
"Am"c2A cde "D"A2c | "G"B2G Bcd "/"G3 | "C"C2g gfe "G"dcB | "D"ADE "Bm"FAG "Em"E2z :|

